icons/bhi_tab.svg

<svg xmlns="http://www.w3.org/2000/svg" viewBox="0 0 512 512" enable-background="new 0 0 512 512"><path fill="#010101" d="M448 448h-384v-384h193.4v128h190.6v256zm9-447.6h-399.3c-31.5 0-57 25.5-57 57v399.2c0 31.5 25.5 57 57 57h399.3c31.5 0 57-25.5 57-57v-399.2c0-31.6-25.6-57-57-57z"/></svg>

<?xml version="1.0" encoding="utf-8"?>
<!-- Generator: Adobe Illustrator 19.2.0, SVG Export Plug-In . SVG Version: 6.00 Build 0)  -->
<svg version="1.1" id="Layer_1" xmlns="http://www.w3.org/2000/svg" xmlns:xlink="http://www.w3.org/1999/xlink" x="0px" y="0px"
	 viewBox="0 0 512 512" enable-background="new 0 0 512 512" xml:space="preserve">
<path fill="#010101" d="M448,448H64V64h193.4v128H448V448z M457,0.4H57.7c-31.5,0-57,25.5-57,57v399.2c0,31.5,25.5,57,57,57H457
	c31.5,0,57-25.5,57-57V57.4C514,25.8,488.4,0.4,457,0.4z"/>
</svg>
